X:3
T:End Of A Love Affair
C:Edward Redding
L:1/4
M:C
I:linebreak $
K:F
F/G/ S|:"Gm" A3/2 A/"C7" (3A G F |"Fo" E3 D/C/ "F" x4||[K:Eb]"Fm" G3/2 G/"Bb7" (3G F E |$
"Ebo" D3 C/B,/ "Eb" x4||[K:Db]"Ebm" (3F F F"Ab7" F A/B/ |"Db" (3F F F"Bbm" F E/D/ ||$
[K:F]"Gm" (3C C C"Gb7" C C ||1"F" C3 F/G/ "Dm" x4:|2"F" C3 F/G/ "Eb7" x4||[K:C]"Dm" (3F D F (3A F D ||$
"DmM" F F2 D/E/ |"Dm" (3F D F (3A F D |"G7" F3 E/F/ |"C" (3G E G"G+" B A/G/ |$"C" A"Am" B2 c ||
[K:F]"Gm" d4- |"C7" d3 "_D.S. al 3rd end." F/G/ ||3"Aø" z F/G/"D7" A3/2 A/ |
"Gm" (3A G F"Am" E2 |$"Bbm" B3 A/A/ "Eb7" x4|"Am" (3E E E E D |"Abo" G3 F/E/ |
"Gm" D D/C/"Gbo" D D/C/ |"Gm" (3D F B"C7" d E |"F" F4 |]

